img/svg/phone.svg

<svg width="13" height="16" viewBox="0 0 13 16" fill="none" xmlns="http://www.w3.org/2000/svg">
<g id="Icons&#38;Logo/Phone">
<path id="Union" fill-rule="evenodd" clip-rule="evenodd" d="M1.47771 1.49035C0.407036 2.09016 -0.173009 3.23613 0.0457595 4.31941L0.404071 6.09367C1.3302 9.21701 2.90461 11.863 5.22921 14.2029L6.63362 15.3911C7.49109 16.1166 8.80393 16.2022 9.8746 15.6024L12.1043 14.3533C12.9766 13.8646 13.2662 12.8186 12.7298 12.0941L10.7951 9.48096C10.2793 8.7842 9.20705 8.66949 8.42947 9.22787L7.05383 10.2157C5.82614 9.33632 5.0461 8.02537 4.87507 6.55403L6.44457 5.89198C7.33172 5.51776 7.76545 4.55939 7.4015 3.77755L6.03652 0.845267C5.65806 0.0322596 4.57968 -0.247395 3.7074 0.241264L1.47771 1.49035ZM1.2824 4.01819C1.16306 3.42725 1.47948 2.80211 2.06354 2.47492L4.29323 1.22582C4.5113 1.10366 4.78089 1.17357 4.87551 1.37683L6.24049 4.30911C6.33147 4.50457 6.22304 4.74416 6.00126 4.83771L3.57088 5.8629L3.58692 6.27871C3.66894 8.40504 4.79869 10.3037 6.65548 11.4358L7.01858 11.6572L9.14878 10.1275C9.34317 9.98792 9.61123 10.0166 9.74019 10.1908L11.6748 12.8039C11.8089 12.9851 11.7365 13.2466 11.5185 13.3687L9.28877 14.6178C8.70471 14.945 7.98854 14.8983 7.52079 14.5026L6.11637 13.3144C4.3893 11.6193 2.29008 8.09128 1.64071 5.79245L1.2824 4.01819Z" fill="#7859CF"/>
</g>
</svg>

<svg width="13" height="16" fill="none" xmlns="http://www.w3.org/2000/svg"><path fill-rule="evenodd" clip-rule="evenodd" d="M1.478 1.49C.407 2.09-.173 3.236.046 4.32l.358 1.774c.926 3.123 2.5 5.769 4.825 8.109l1.405 1.188c.857.726 2.17.811 3.24.211l2.23-1.249c.873-.488 1.162-1.534.626-2.259l-1.935-2.613c-.516-.697-1.588-.812-2.366-.253l-1.375.988c-1.228-.88-2.008-2.19-2.179-3.662l1.57-.662c.887-.374 1.32-1.333.957-2.114L6.037.845C5.658.032 4.58-.247 3.707.241l-2.23 1.25Zm-.196 2.528c-.119-.59.197-1.216.782-1.543l2.23-1.25c.217-.121.487-.051.582.152L6.24 4.309c.091.196-.017.435-.239.529l-2.43 1.025.016.416c.082 2.126 1.212 4.025 3.068 5.157l.364.221 2.13-1.53c.194-.14.462-.11.591.064l1.935 2.613c.134.181.061.443-.157.565l-2.23 1.249c-.583.327-1.3.28-1.767-.115l-1.405-1.189C4.39 11.62 2.29 8.091 1.641 5.792l-.359-1.774Z" fill="#7859CF"/></svg>
